build/img/icon-category/icon-category-3.svg

<svg width="26" height="26" viewBox="0 0 26 26" fill="none" xmlns="http://www.w3.org/2000/svg">
<path d="M15.0967 20.3157L18.1919 23.399C18.5339 23.7466 18.942 24.0227 19.3924 24.2113C19.8428 24.3998 20.3265 24.4969 20.815 24.4969C21.3036 24.4969 21.7873 24.3998 22.2377 24.2113C22.6881 24.0227 23.0962 23.7466 23.4381 23.399V23.399C23.7871 23.0584 24.0644 22.6518 24.2536 22.2032C24.4429 21.7545 24.5404 21.2727 24.5404 20.786C24.5404 20.2994 24.4429 19.8176 24.2536 19.3689C24.0644 18.9203 23.7871 18.5137 23.4381 18.1731L21.3921 16.1351" stroke="#2C8ECC" stroke-width="2" stroke-miterlimit="10" stroke-linecap="square"/>
<path d="M10.8212 11.1453L7.22754 7.5647" stroke="#2C8ECC" stroke-width="2" stroke-miterlimit="10"/>
<path d="M5.0243 8.29652L7.2277 7.56491L7.96217 5.37006L5.0243 2.4436L2.08643 5.37006L5.0243 8.29652Z" stroke="#2C8ECC" stroke-width="2" stroke-miterlimit="10" stroke-linecap="square"/>
<path d="M24.202 5.60186L20.9724 8.80528L17.2004 5.06778L20.432 1.86331C19.6866 1.54135 18.8665 1.43033 18.0618 1.54244C16.5688 1.67019 15.1807 2.35986 14.1801 3.4711C13.1796 4.58233 12.6417 6.03159 12.6761 7.52391C12.6681 8.11056 12.7776 8.69291 12.9982 9.23693L2.65792 18.3121C2.29934 18.6306 2.00863 19.0176 1.80305 19.4501C1.59747 19.8826 1.4812 20.3519 1.46114 20.83C1.44108 21.3081 1.51763 21.7854 1.68627 22.2335C1.8549 22.6816 2.11217 23.0914 2.44282 23.4386V23.4386C2.7811 23.7911 3.19083 24.0677 3.64476 24.2503C4.09869 24.4328 4.58642 24.5169 5.07553 24.4972C5.56465 24.4774 6.04393 24.3541 6.48152 24.1356C6.91911 23.917 7.30498 23.6082 7.61347 23.2296L16.7691 12.9765C17.7477 13.2624 18.7768 13.3337 19.7857 13.1856C20.8488 12.9668 21.8319 12.4632 22.6289 11.7291C23.426 10.995 24.0069 10.0582 24.309 9.01954C24.6524 7.8997 24.6148 6.69821 24.202 5.60186V5.60186Z" stroke="#2C8ECC" stroke-width="2" stroke-miterlimit="10" stroke-linecap="square"/>
</svg>

<svg width="26" height="26" fill="none" xmlns="http://www.w3.org/2000/svg"><path d="M15.097 20.316l3.095 3.083a3.675 3.675 0 002.623 1.098 3.685 3.685 0 002.623-1.098v0a3.657 3.657 0 001.102-2.613 3.646 3.646 0 00-1.102-2.613l-2.046-2.038" stroke="#2C8ECC" stroke-width="2" stroke-miterlimit="10" stroke-linecap="square"/><path d="M10.821 11.145l-3.593-3.58" stroke="#2C8ECC" stroke-width="2" stroke-miterlimit="10"/><path d="M5.024 8.297l2.204-.732.734-2.195-2.938-2.926L2.086 5.37l2.938 2.927zm19.178-2.695l-3.23 3.203L17.2 5.068l3.232-3.205a4.435 4.435 0 00-2.37-.32A5.9 5.9 0 0014.18 3.47a5.855 5.855 0 00-1.504 4.053 4.399 4.399 0 00.322 1.713l-10.34 9.075A3.575 3.575 0 001.46 20.83a3.56 3.56 0 00.982 2.609v0a3.45 3.45 0 002.633 1.058 3.46 3.46 0 002.537-1.267l9.156-10.254a7.087 7.087 0 003.017.21 5.974 5.974 0 002.843-1.457 5.939 5.939 0 001.68-2.71 5.293 5.293 0 00-.107-3.417v0z" stroke="#2C8ECC" stroke-width="2" stroke-miterlimit="10" stroke-linecap="square"/></svg>
